FlatUX/src/svg/Nintendo - Nintendo Entertainment System-content (J).svg

<svg enable-background="new 0 0 256 256" viewBox="0 0 256 256" xmlns="http://www.w3.org/2000/svg"><path d="m244.141 180h-232v-118.452c0-5.273 4.328-9.548 9.667-9.548h212.667c5.339 0 9.667 4.275 9.667 9.548v118.452z" fill="#c13c28"/><path d="m236 172h-216v-108c0-2.209 1.791-4 4-4h208c2.209 0 4 1.791 4 4z" fill="#e94b36"/><path d="m223.122 164h-190.244c-2.694 0-4.878-2.156-4.878-4.815v-86.37c0-2.659 2.184-4.815 4.878-4.815h190.244c2.694 0 4.878 2.156 4.878 4.815v86.37c0 2.659-2.184 4.815-4.878 4.815z" fill="#1b80bb"/><path d="m28 172h200v28h-200z" fill="#c13c28"/><path d="m32 168h192v32h-192z" fill="#e94b36"/></svg>

<svg xmlns="http://www.w3.org/2000/svg" viewBox="0 0 256 256"><path fill="#c13c28" d="M244.141 180h-232V61.548c0-5.273 4.328-9.548 9.667-9.548h212.667c5.339 0 9.667 4.275 9.667 9.548V180z"/><path fill="#e94b36" d="M236 172H20V64a4 4 0 0 1 4-4h208a4 4 0 0 1 4 4z"/><path fill="#1b80bb" d="M223.122 164H32.878c-2.694 0-4.878-2.156-4.878-4.815v-86.37C28 70.156 30.184 68 32.878 68h190.244c2.694 0 4.878 2.156 4.878 4.815v86.37c0 2.659-2.184 4.815-4.878 4.815"/><path fill="#c13c28" d="M28 172h200v28H28z"/><path fill="#e94b36" d="M32 168h192v32H32z"/></svg>
